X:1
T:Branscombe, 11.10.11.7
T:Branscombe, 11.10.11.7
T:Horatio Arthur Branscombe, before 1905
T:Public Domain Courtesy of the Cyber Hymnal™
C:Horatio Arthur Branscombe, before 1905
Z:Public Domain
Z:Courtesy of the Cyber Hymnal™
%%score ( 1 2 ) ( 3 4 )
L:1/8
M:4/4
K:G
V:1 treble 
V:2 treble 
V:3 bass 
V:4 bass 
V:1
 [GB]4 [GB]2 [GB]2 | B4 A2 G2 | [DG]4 F2 E2 | [CE]4 [B,D]4 | G4 F2 G2 | B4 A2 G2 | [DF]4 G2 G2 | %7
 A8 | [^DB]4 B2 B2 | [Ec]4 E2 E2 | [DF]4 G2 G2 | [DA]4 [CD]4 | [B,B]4 A2 B2 | [Gd]4 [Gc]2 E2 | F8 | %15
 [B,G]8 |] %16
V:2
 x8 | E8 | x4 D4 | x8 | D8 | D8 | x4 D4 | (D2 G2 F2 E2) | x4 E4 | x4 C4 | x4 ^C4 | x8 | x4 D4 | %13
 x6 E2 | E4 D2 C2 | x8 |] %16
V:3
 [G,D]4 [G,D]2 [G,D]2 | D4 C2 B,2 | B,4 A,2 F,2 | G,8 | [B,D]4 [A,C]2 [G,B,]2 | G,4 A,2 B,2 | %6
 [A,C]4 [G,B,]4 | A,8 | [B,,F,]4 [E,G,]4 | [A,,A,]4 [A,,A,]4 | [D,C]4 B,2 A,2 | [F,A,]8 | %12
 G,4 [F,A,]2 G,2 | [=F,B,]4 C4 | C4 B,2 A,2 | [G,,G,]8 |] %16
V:4
 x8 | C,8 | B,,8 | G,8 | x8 | G,4 G,4 | x8 | (F,2 E,2 D,2 C,2) | x8 | x8 | x4 E,4 | x8 | %12
 G,4 G,2 x2 | x4 E,2 C,2 | D,8 | x8 |] %16

